X: 1
T: Our Village Chanteyman (harmonized low)
C: David A. Kaynor, May 2021
M: 4/4
L: 1/8
K: G
V: 1 staves=2
|: Bc |\
"G"d2gd B2AG | "D7"FEFG ABc2 |1,3 "G"d2gd B2AG | "D"FDGF G2Bc \
                            :|2,4 "G"dgdB "Am"cBAG | "D7"FDGF "G"G2 :|
|: GA |\
"G"B2AF GDB,D | "C"CEGE "D7"DFAc |1,3 "G"B2AF GDB,D | "D7"CDGF G2GA \
                                :|2,4 "G"dgdB "Am"cBAG | "D7"FDGF "G"G2 :|
V: 2
|: GA |\
B2dB G2DE | DCD2 FGA2 |1,3 B2dB G2DE | DA,DC B,2GA \
                     :|2,4 BdBG AGEC | DA,DC B,2 :|
|: DF |\
G2FD DB,G,B, | G,CEC A,DFA |1,3 G2FD DB,G,B, | A,CCD D2DF \
                          :|2,4 BdBG AGEC | DA,DC B,2 :|
